X: 10
T:Cedars of Lebanon
R:Reel
Z:Added by Alf 
M:4/4
L:1/8
K:D
|:EA,A,G, A,CEC|D2FA d3e|fdd2 AFDF|GEED EGFG|
EA,A,G, A,CEC|D2FA dcde|fdd2 AFDF|GBAG FDD2:|
|:dcde fdd2|Adfa a2gf|edef gfga|bgaf gfec|
d3e fdd2|Adfd AFDF|GFGA BcdB|AFGE FDD2:|
